lib/typescript/assets/images/icons/shortcut.svg

<svg xmlns="http://www.w3.org/2000/svg" width="24" height="24" viewBox="0 0 24 24">
  <path d="M19.2928932,4 L16.5,4 C16.2238576,4 16,3.77614237 16,3.5 C16,3.22385763 16.2238576,3 16.5,3 L20.5,3 C20.7761424,3 21,3.22385763 21,3.5 L21,7.5 C21,7.77614237 20.7761424,8 20.5,8 C20.2238576,8 20,7.77614237 20,7.5 L20,4.70710678 L14.8535534,9.85355339 C14.6582912,10.0488155 14.3417088,10.0488155 14.1464466,9.85355339 C13.9511845,9.65829124 13.9511845,9.34170876 14.1464466,9.14644661 L19.2928932,4 L19.2928932,4 Z M20,11.5 C20,11.2238576 20.2238576,11 20.5,11 C20.7761424,11 21,11.2238576 21,11.5 L21,18.5 C21,19.8807119 19.8807119,21 18.5,21 L5.5,21 C4.11928813,21 3,19.8807119 3,18.5 L3,5.5 C3,4.11928813 4.11928813,3 5.5,3 L12.5,3 C12.7761424,3 13,3.22385763 13,3.5 C13,3.77614237 12.7761424,4 12.5,4 L5.5,4 C4.67157288,4 4,4.67157288 4,5.5 L4,18.5 C4,19.3284271 4.67157288,20 5.5,20 L18.5,20 C19.3284271,20 20,19.3284271 20,18.5 L20,11.5 Z"/>
</svg>

<svg xmlns="http://www.w3.org/2000/svg" width="24" height="24"><path d="M19.293 4H16.5a.5.5 0 1 1 0-1h4a.5.5 0 0 1 .5.5v4a.5.5 0 1 1-1 0V4.707l-5.146 5.147a.5.5 0 0 1-.708-.708L19.293 4zM20 11.5a.5.5 0 1 1 1 0v7a2.5 2.5 0 0 1-2.5 2.5h-13A2.5 2.5 0 0 1 3 18.5v-13A2.5 2.5 0 0 1 5.5 3h7a.5.5 0 1 1 0 1h-7A1.5 1.5 0 0 0 4 5.5v13A1.5 1.5 0 0 0 5.5 20h13a1.5 1.5 0 0 0 1.5-1.5v-7z"/></svg>
